X: 100133
M: C|
L: 1/8
K: G
uD |\
(.d>.B)(A>B) G/G/G G :| uc | c>d(d>e) (g>a)g>e | (.d>.B)(A>G) A/A/A (A>d) |
(.g>.b)(a>g) e/e/e (e>g) | (g>b) (e>g) (d>e) {a}(g>e) | (.d>.B)(A>B) "_Segue Reel."G/G/G G "^D.C."|]


